public/images/well/outline/6.svg

<svg width="100%" height="100%" preserveAspectRatio="none" viewBox="0 0 180 180" fill="none" xmlns="http://www.w3.org/2000/svg">
<path fill-rule="evenodd" clip-rule="evenodd" d="M180 0H0V180H180V0ZM144.2 30.0157C144.2 26.8276 146.798 24.2288 149.986 24.2288L149.97 24.2207C153.158 24.2207 155.756 26.8196 155.756 30.0076V155.786H24.2105V30.0157C24.2105 26.8276 26.8092 24.2288 29.997 24.2288C33.1847 24.2288 35.7834 26.8276 35.7834 30.0157C35.7834 43.3894 46.6218 54.2288 59.9943 54.2288C73.3668 54.2288 84.2052 43.3894 84.2052 30.0157C84.2052 26.8276 86.7957 24.2288 89.9915 24.2288C93.1874 24.2288 95.778 26.8276 95.778 30.0157C95.778 43.3894 106.616 54.2288 119.989 54.2288C133.361 54.2288 144.2 43.3894 144.2 30.0157Z" fill="white"/>
<path d="M175.642 14.4552C175.142 13.632 174.601 12.8329 174.028 12.0581C173.455 11.2914 172.842 10.5488 172.196 9.83858C171.873 9.48345 171.542 9.1364 171.203 8.79742C170.525 8.11945 169.815 7.47377 169.073 6.86037C168.33 6.24697 167.564 5.67393 166.765 5.13317C165.57 4.32607 164.311 3.59968 162.996 2.97014C162.124 2.55044 161.22 2.17111 160.308 1.83213C159.397 1.49314 158.452 1.20258 157.492 0.952381C156.532 0.702179 155.555 0.508476 154.562 0.355127C153.069 0.129138 151.544 0.00807275 149.995 0.00807275C148.445 0.00807275 146.92 0.129138 145.427 0.355127C144.531 0.492334 143.643 0.677965 142.772 0.887811C142.199 1.03309 141.634 1.17837 141.077 1.35593C140.609 1.50121 140.141 1.66263 139.681 1.82405C138.906 2.10654 138.147 2.42938 137.405 2.77643C136.824 3.04278 136.259 3.32526 135.702 3.62389C134.855 4.08394 134.024 4.58434 133.233 5.1251C132.434 5.66586 131.667 6.2389 130.925 6.8523C130.182 7.4657 129.472 8.11138 128.794 8.78934C128.455 9.12833 128.124 9.47538 127.801 9.83051C125.687 12.155 123.944 14.8184 122.636 17.724C122.467 18.0952 122.306 18.4746 122.152 18.862C121.539 20.3874 121.046 21.9774 120.691 23.6239C120.651 23.8257 120.603 24.0194 120.57 24.2211C120.207 26.0936 120.005 28.0226 120.005 30C120.005 13.4302 106.576 0 90.0081 0C88.3618 0 86.7477 0.137206 85.174 0.395478C84.3831 0.524615 83.6084 0.686038 82.8417 0.871672C81.5746 1.17837 80.348 1.57385 79.1536 2.0339C78.629 2.23568 78.1125 2.45359 77.6041 2.68765C75.764 3.52704 74.0209 4.54399 72.3988 5.72236C72.2051 5.86764 72.0113 6.00484 71.8176 6.15819C71.1881 6.64245 70.5749 7.14286 69.9857 7.67555C69.9212 7.73204 69.8566 7.78854 69.7921 7.84504C63.7878 13.3333 60.0109 21.2268 60.0109 30C60.0109 13.4302 46.5819 0 30.0135 0C28.2784 0 26.5755 0.15335 24.9211 0.435836C24.3401 0.532688 23.759 0.653754 23.1941 0.78289C21.6204 1.14609 20.0952 1.63842 18.6344 2.23568C18.4972 2.29217 18.36 2.34867 18.2228 2.40517C11.242 5.39145 5.63316 10.9605 2.57451 17.9015C2.26784 18.5956 1.98535 19.3059 1.73517 20.0323C1.45271 20.8394 1.19451 21.6626 0.976609 22.4939C0.72643 23.4544 0.532751 24.431 0.379415 25.4237C0.226079 26.4165 0.121161 27.4253 0.0727395 28.4504C0.0485286 28.9588 0.0323486 29.4754 0.0323486 29.9919V179.976H180V30.0081C180 26.9007 179.524 23.9064 178.652 21.0896C177.926 18.7409 176.909 16.5133 175.658 14.4552H175.642ZM155.773 155.787H24.2271V30.0081C24.2271 26.82 26.8177 24.2211 30.0135 24.2211C33.2094 24.2211 35.8 26.82 35.8 30.0081C35.8 43.3818 46.6384 54.2211 60.0109 54.2211C73.3834 54.2211 84.2218 43.3818 84.2218 30.0081C84.2218 26.82 86.8203 24.2211 90.0081 24.2211C93.1959 24.2211 95.7946 26.82 95.7946 30.0081C95.7946 43.3818 106.633 54.2211 120.005 54.2211C133.378 54.2211 144.216 43.3818 144.216 30.0081C144.216 26.82 146.807 24.2211 150.003 24.2211C153.199 24.2211 155.789 26.82 155.789 30.0081V155.779L155.773 155.787Z" fill="current"/>
<mask id="mask0_3125_5904" style="mask-type:luminance" maskUnits="userSpaceOnUse" x="0" y="0" width="180" height="180">
<path d="M149.987 24.229C153.174 24.229 155.773 26.8198 155.773 30.0159V155.787H24.2271V30.0078C24.2271 26.8198 26.8177 24.2209 30.0135 24.2209C33.2093 24.2209 35.7999 26.8117 35.7999 30.0078C35.7999 43.3815 46.6383 54.2209 60.0108 54.2209C73.3833 54.2209 84.2217 43.3815 84.2217 30.0078C84.2217 26.8198 86.8203 24.2209 90.0081 24.2209C93.1958 24.2209 95.7945 26.8117 95.7945 30.0078C95.7945 43.3815 106.633 54.2209 120.005 54.2209C133.378 54.2209 144.216 43.3815 144.216 30.0078C144.216 26.8198 146.807 24.2209 150.003 24.2209M149.987 0.0158852C133.418 0.0158852 119.989 13.4461 119.989 30.0159C119.989 13.4461 106.56 0.0158852 89.9919 0.0158852C73.4236 0.0158852 59.9947 13.4461 59.9947 30.0159C59.9947 13.4461 46.5657 0.0158852 29.9973 0.0158852C13.429 0.0158852 0 13.4461 0 30.0159V180H179.968V30.0078C179.968 13.438 166.539 0.0078125 149.97 0.0078125L149.987 0.0158852Z" fill="current"/>
</mask>
<g mask="url(#mask0_3125_5904)">
<path opacity='0.5' d="M92.4863 98.9179V-38.1846" stroke="white" stroke-miterlimit="10"/>
<path opacity='0.5' d="M92.4868 98.918L80.5427 -37.668" stroke="white" stroke-miterlimit="10"/>
<path opacity='0.5' d="M92.486 98.9186L68.6786 -36.1016" stroke="white" stroke-miterlimit="10"/>
<path opacity='0.5' d="M92.4858 98.9186L57.0006 -33.5107" stroke="white" stroke-miterlimit="10"/>
<path opacity='0.5' d="M92.4862 98.9178L45.5977 -29.9199" stroke="white" stroke-miterlimit="10"/>
<path opacity='0.5' d="M92.4862 98.9187L34.5495 -25.3428" stroke="white" stroke-miterlimit="10"/>
<path opacity='0.5' d="M92.4864 98.9174L23.9372 -19.8154" stroke="white" stroke-miterlimit="10"/>
<path opacity='0.5' d="M92.4867 98.9177L13.8577 -13.3906" stroke="white" stroke-miterlimit="10"/>
<path opacity='0.5' d="M92.486 98.9179L4.36633 -6.11035" stroke="white" stroke-miterlimit="10"/>
<path opacity='0.5' d="M92.4862 98.9179L-4.45422 1.96875" stroke="white" stroke-miterlimit="10"/>
<path opacity='0.5' d="M92.4865 98.9176L-12.5323 10.79" stroke="white" stroke-miterlimit="10"/>
<path opacity='0.5' d="M92.4864 98.9182L-19.8118 20.2822" stroke="white" stroke-miterlimit="10"/>
<path opacity='0.5' d="M92.4861 98.9176L-26.2361 30.3623" stroke="white" stroke-miterlimit="10"/>
<path opacity='0.5' d="M92.4862 98.9184L-31.7642 40.9766" stroke="white" stroke-miterlimit="10"/>
<path opacity='0.5' d="M92.4862 98.918L-36.34 52.0254" stroke="white" stroke-miterlimit="10"/>
<path opacity='0.5' d="M92.4862 98.9177L-39.9313 63.4375" stroke="white" stroke-miterlimit="10"/>
<path opacity='0.5' d="M92.4866 98.9179L-42.5215 75.1084" stroke="white" stroke-miterlimit="10"/>
<path opacity='0.5' d="M92.486 98.9188L-44.0878 86.9736" stroke="white" stroke-miterlimit="10"/>
<path opacity='0.5' d="M92.4861 98.918H-44.6041" stroke="white" stroke-miterlimit="10"/>
<path opacity='0.5' d="M92.486 98.918L-44.0878 110.871" stroke="white" stroke-miterlimit="10"/>
<path opacity='0.5' d="M92.4866 98.918L-42.5215 122.727" stroke="white" stroke-miterlimit="10"/>
<path opacity='0.5' d="M92.4862 98.918L-39.9313 134.406" stroke="white" stroke-miterlimit="10"/>
<path opacity='0.5' d="M92.4862 98.918L-36.34 145.811" stroke="white" stroke-miterlimit="10"/>
<path opacity='0.5' d="M92.4862 98.918L-31.7642 156.86" stroke="white" stroke-miterlimit="10"/>
<path opacity='0.5' d="M92.4861 98.918L-26.2361 167.473" stroke="white" stroke-miterlimit="10"/>
<path opacity='0.5' d="M92.4864 98.918L-19.8118 177.562" stroke="white" stroke-miterlimit="10"/>
<path opacity='0.5' d="M92.4865 98.918L-12.5323 187.054" stroke="white" stroke-miterlimit="10"/>
<path opacity='0.5' d="M92.4862 98.918L-4.45422 195.867" stroke="white" stroke-miterlimit="10"/>
<path opacity='0.5' d="M92.486 98.918L4.36633 203.946" stroke="white" stroke-miterlimit="10"/>
<path opacity='0.5' d="M92.4867 98.918L13.8577 211.234" stroke="white" stroke-miterlimit="10"/>
<path opacity='0.5' d="M92.4864 98.918L23.9372 217.659" stroke="white" stroke-miterlimit="10"/>
<path opacity='0.5' d="M92.4862 98.918L34.5495 223.179" stroke="white" stroke-miterlimit="10"/>
<path opacity='0.5' d="M92.4862 98.918L45.5977 227.756" stroke="white" stroke-miterlimit="10"/>
<path opacity='0.5' d="M92.4858 98.918L57.0006 231.355" stroke="white" stroke-miterlimit="10"/>
<path opacity='0.5' d="M92.486 98.918L68.6786 233.946" stroke="white" stroke-miterlimit="10"/>
<path opacity='0.5' d="M92.4868 98.918L80.5427 235.504" stroke="white" stroke-miterlimit="10"/>
<path opacity='0.5' d="M92.4863 98.918V236.029" stroke="white" stroke-miterlimit="10"/>
<path opacity='0.5' d="M92.4863 98.918L104.438 235.504" stroke="white" stroke-miterlimit="10"/>
<path opacity='0.5' d="M92.4863 98.918L116.294 233.946" stroke="white" stroke-miterlimit="10"/>
<path opacity='0.5' d="M92.4863 98.918L127.971 231.355" stroke="white" stroke-miterlimit="10"/>
<path opacity='0.5' d="M92.4863 98.918L139.375 227.756" stroke="white" stroke-miterlimit="10"/>
<path opacity='0.5' d="M92.4863 98.918L150.423 223.179" stroke="white" stroke-miterlimit="10"/>
<path opacity='0.5' d="M92.4863 98.918L161.035 217.659" stroke="white" stroke-miterlimit="10"/>
<path opacity='0.5' d="M92.4863 98.918L171.123 211.234" stroke="white" stroke-miterlimit="10"/>
<path opacity='0.5' d="M92.4863 98.918L180.606 203.946" stroke="white" stroke-miterlimit="10"/>
<path opacity='0.5' d="M92.4863 98.918L189.427 195.867" stroke="white" stroke-miterlimit="10"/>
<path opacity='0.5' d="M92.4863 98.918L197.505 187.054" stroke="white" stroke-miterlimit="10"/>
<path opacity='0.5' d="M92.4863 98.918L204.784 177.562" stroke="white" stroke-miterlimit="10"/>
<path opacity='0.5' d="M92.4863 98.918L211.217 167.473" stroke="white" stroke-miterlimit="10"/>
<path opacity='0.5' d="M92.4863 98.918L216.737 156.86" stroke="white" stroke-miterlimit="10"/>
<path opacity='0.5' d="M92.4863 98.918L221.313 145.811" stroke="white" stroke-miterlimit="10"/>
<path opacity='0.5' d="M92.4863 98.918L224.912 134.406" stroke="white" stroke-miterlimit="10"/>
<path opacity='0.5' d="M92.4863 98.918L227.502 122.727" stroke="white" stroke-miterlimit="10"/>
<path opacity='0.5' d="M92.4863 98.918L229.06 110.871" stroke="white" stroke-miterlimit="10"/>
<path opacity='0.5' d="M92.4863 98.918H229.585" stroke="white" stroke-miterlimit="10"/>
<path opacity='0.5' d="M92.4863 98.9188L229.06 86.9736" stroke="white" stroke-miterlimit="10"/>
<path opacity='0.5' d="M92.4863 98.9179L227.502 75.1084" stroke="white" stroke-miterlimit="10"/>
<path opacity='0.5' d="M92.4863 98.9177L224.912 63.4375" stroke="white" stroke-miterlimit="10"/>
<path opacity='0.5' d="M92.4863 98.918L221.313 52.0254" stroke="white" stroke-miterlimit="10"/>
<path opacity='0.5' d="M92.4863 98.9184L216.737 40.9766" stroke="white" stroke-miterlimit="10"/>
<path opacity='0.5' d="M92.4863 98.9176L211.217 30.3623" stroke="white" stroke-miterlimit="10"/>
<path opacity='0.5' d="M92.4863 98.9182L204.784 20.2822" stroke="white" stroke-miterlimit="10"/>
<path opacity='0.5' d="M92.4863 98.9176L197.505 10.79" stroke="white" stroke-miterlimit="10"/>
<path opacity='0.5' d="M92.4863 98.9179L189.427 1.96875" stroke="white" stroke-miterlimit="10"/>
<path opacity='0.5' d="M92.4863 98.9179L180.606 -6.11035" stroke="white" stroke-miterlimit="10"/>
<path opacity='0.5' d="M92.4863 98.9177L171.123 -13.3906" stroke="white" stroke-miterlimit="10"/>
<path opacity='0.5' d="M92.4863 98.9174L161.035 -19.8154" stroke="white" stroke-miterlimit="10"/>
<path opacity='0.5' d="M92.4863 98.9187L150.423 -25.3428" stroke="white" stroke-miterlimit="10"/>
<path opacity='0.5' d="M92.4863 98.9178L139.375 -29.9199" stroke="white" stroke-miterlimit="10"/>
<path opacity='0.5' d="M92.4863 98.9186L127.971 -33.5107" stroke="white" stroke-miterlimit="10"/>
<path opacity='0.5' d="M92.4863 98.9186L116.294 -36.1016" stroke="white" stroke-miterlimit="10"/>
<path opacity='0.5' d="M92.4863 98.918L104.438 -37.668" stroke="white" stroke-miterlimit="10"/>
</g>
</svg>

<svg preserveAspectRatio="none" viewBox="0 0 180 180" fill="none" xmlns="http://www.w3.org/2000/svg"><path fill-rule="evenodd" clip-rule="evenodd" d="M180 0H0v180h180V0Zm-35.8 30.016a5.796 5.796 0 0 1 5.786-5.787l-.016-.008a5.796 5.796 0 0 1 5.786 5.787v125.778H24.21V30.016a5.797 5.797 0 0 1 5.787-5.787 5.797 5.797 0 0 1 5.786 5.787c0 13.373 10.839 24.213 24.211 24.213 13.373 0 24.211-10.84 24.211-24.213a5.792 5.792 0 0 1 5.787-5.787 5.792 5.792 0 0 1 5.786 5.787c0 13.373 10.838 24.213 24.211 24.213 13.372 0 24.211-10.84 24.211-24.213Z" fill="#fff"/><path d="M175.642 14.455a31.8 31.8 0 0 0-1.614-2.397 29.944 29.944 0 0 0-2.825-3.26 30.437 30.437 0 0 0-4.438-3.665 29.491 29.491 0 0 0-3.769-2.163 31.6 31.6 0 0 0-2.688-1.138 29.217 29.217 0 0 0-5.746-1.477 30.5 30.5 0 0 0-4.567-.347c-1.55 0-3.075.121-4.568.347-.896.137-1.784.323-2.655.533a29.143 29.143 0 0 0-3.091.936 28.08 28.08 0 0 0-2.276.952 28.402 28.402 0 0 0-4.172 2.349 30.025 30.025 0 0 0-4.439 3.664 30.068 30.068 0 0 0-6.642 10.073 29.36 29.36 0 0 0-1.461 4.762c-.04.202-.088.395-.121.597a30.32 30.32 0 0 0-.565 5.779c0-16.57-13.429-30-29.997-30-1.646 0-3.26.137-4.834.395-.79.13-1.566.291-2.332.477a29.68 29.68 0 0 0-5.238 1.816A30.13 30.13 0 0 0 72.4 5.722c-.194.146-.388.283-.581.436-.63.484-1.243.985-1.832 1.518l-.194.169C63.788 13.333 60.011 21.227 60.011 30c0-16.57-13.43-30-29.998-30a30.25 30.25 0 0 0-6.819.783 29.718 29.718 0 0 0-4.56 1.453l-.411.17A30.07 30.07 0 0 0 2.575 17.9a27.16 27.16 0 0 0-.84 2.131c-.282.807-.54 1.63-.758 2.462a29.43 29.43 0 0 0-.598 2.93 28.68 28.68 0 0 0-.306 3.026c-.024.509-.04 1.025-.04 1.542v149.984H180V30.008a30.11 30.11 0 0 0-1.348-8.918 29.64 29.64 0 0 0-2.994-6.635h-.016Zm-19.869 141.332H24.227V30.008a5.792 5.792 0 0 1 5.787-5.787 5.792 5.792 0 0 1 5.786 5.787c0 13.374 10.838 24.213 24.21 24.213 13.373 0 24.212-10.84 24.212-24.213a5.797 5.797 0 0 1 5.786-5.787 5.797 5.797 0 0 1 5.787 5.787c0 13.374 10.838 24.213 24.21 24.213 13.373 0 24.211-10.84 24.211-24.213a5.792 5.792 0 0 1 5.787-5.787 5.791 5.791 0 0 1 5.786 5.787V155.78l-.016.008Z" fill="current"/><mask id="a" style="mask-type:luminance" maskUnits="userSpaceOnUse" x="0" y="0" width="180" height="180"><path d="M149.987 24.229a5.792 5.792 0 0 1 5.786 5.787v125.771H24.227V30.007a5.787 5.787 0 1 1 11.573 0c0 13.375 10.838 24.214 24.21 24.214 13.373 0 24.212-10.84 24.212-24.213a5.797 5.797 0 0 1 5.786-5.787 5.792 5.792 0 0 1 5.787 5.787c0 13.374 10.838 24.213 24.21 24.213 13.373 0 24.211-10.84 24.211-24.213a5.792 5.792 0 0 1 5.787-5.787M149.987.016c-16.569 0-29.998 13.43-29.998 30 0-16.57-13.429-30-29.997-30-16.568 0-29.997 13.43-29.997 30 0-16.57-13.43-30-29.998-30S0 13.446 0 30.016V180h179.968V30.008c0-16.57-13.429-30-29.998-30l.017.008Z" fill="current"/></mask><g mask="url(#a)" stroke="#fff" stroke-miterlimit="10"><path opacity=".5" d="M92.486 98.918V-38.185M92.487 98.918 80.543-37.668M92.486 98.919 68.679-36.101M92.486 98.919 57-33.511M92.486 98.918 45.598-29.92M92.486 98.919 34.55-25.343M92.486 98.917 23.937-19.815M92.487 98.918 13.857-13.391M92.486 98.918 4.366-6.11M92.486 98.918l-96.94-96.95M92.487 98.918-12.533 10.79M92.486 98.918-19.812 20.282M92.486 98.918-26.236 30.362M92.486 98.918l-124.25-57.941M92.486 98.918-36.34 52.025M92.486 98.918-39.93 63.438M92.487 98.918l-135.009-23.81M92.486 98.919-44.088 86.974M92.486 98.918h-137.09M92.486 98.918l-136.574 11.953M92.487 98.918l-135.009 23.809M92.486 98.918-39.93 134.406M92.486 98.918-36.34 145.811M92.486 98.918l-124.25 57.942M92.486 98.918l-118.722 68.555M92.486 98.918l-112.298 78.644M92.487 98.918l-105.02 88.136M92.486 98.918l-96.94 96.949M92.486 98.918 4.366 203.946M92.487 98.918l-78.63 112.316M92.486 98.918 23.937 217.659M92.486 98.918 34.55 223.179M92.486 98.918 45.598 227.756M92.486 98.918 57 231.355M92.486 98.918 68.679 233.946M92.487 98.918 80.543 235.504M92.486 98.918v137.111M92.486 98.918l11.952 136.586M92.486 98.918l23.808 135.028M92.486 98.918l35.485 132.437M92.486 98.918l46.889 128.838M92.486 98.918l57.937 124.261M92.486 98.918l68.549 118.741M92.486 98.918l78.637 112.316M92.486 98.918l88.12 105.028M92.486 98.918l96.941 96.949M92.486 98.918l105.019 88.136M92.486 98.918l112.298 78.644M92.486 98.918l118.731 68.555M92.486 98.918l124.251 57.942M92.486 98.918l128.827 46.893M92.486 98.918l132.426 35.488M92.486 98.918l135.016 23.809M92.486 98.918l136.574 11.953M92.486 98.918h137.099M92.486 98.919 229.06 86.974M92.486 98.918l135.016-23.81M92.486 98.918l132.426-35.48M92.486 98.918l128.827-46.893M92.486 98.918l124.251-57.941M92.486 98.918l118.731-68.556M92.486 98.918l112.298-78.636M92.486 98.918 197.505 10.79M92.486 98.918l96.941-96.95M92.486 98.918 180.606-6.11M92.486 98.918l78.637-112.309M92.486 98.917l68.549-118.732M92.486 98.919l57.937-124.262M92.486 98.918 139.375-29.92M92.486 98.919l35.485-132.43M92.486 98.919l23.808-135.02M92.486 98.918l11.952-136.586"/></g></svg>
